Numix/32/status/weather-overcast.svg

<?xml version="1.0" encoding="UTF-8" standalone="yes"?>
<svg xmlns="http://www.w3.org/2000/svg" xmlns:xlink="http://www.w3.org/1999/xlink" width="32px" height="32px" viewBox="0 0 24 24" version="1.1">
  <g id="surface1">
    <path style=" stroke:none;fill-rule:nonzero;fill:rgb(84.705882%,84.705882%,84.705882%);fill-opacity:1;" d="M 7.101562 6 C 6.945312 6 6.78125 6.007812 6.609375 6.03125 C 3.917969 6.375 4 8.6875 4 8.6875 C 2.898438 8.875 2 9.835938 2 10.84375 C 2 11.847656 3.148438 12.738281 4.113281 13 C 4.6875 13.152344 5.441406 13 5.441406 13 C 5.78125 13.601562 6.90625 14 7.6875 14 C 8.96875 14 10.28125 13.578125 10.585938 13 C 10.585938 13 15.875 13.421875 16.976562 13 C 18.578125 12.382812 18.078125 10.453125 17.011719 9.804688 C 15.945312 9.152344 14.554688 9.609375 14.554688 9.609375 C 14.554688 9.609375 14.550781 8.28125 13.046875 7.648438 C 11.539062 7.015625 10.273438 8.417969 10.273438 8.417969 C 10.273438 8.417969 9.429688 6.015625 7.101562 6 Z M 7.101562 6 "/>
    <path style=" stroke:none;fill-rule:nonzero;fill:rgb(92.54902%,92.54902%,92.54902%);fill-opacity:1;" d="M 12.460938 11 C 12.328125 11 12.179688 11.007812 12.035156 11.023438 C 9.679688 11.328125 9.75 13.351562 9.75 13.351562 C 8.785156 13.515625 8 14.355469 8 15.234375 C 8 16.117188 9.007812 16.898438 9.851562 17.125 C 10.351562 17.257812 11.007812 17.125 11.007812 17.125 C 11.308594 17.648438 12.292969 18 12.976562 18 C 14.097656 18 15.246094 17.628906 15.511719 17.125 C 15.511719 17.125 20.140625 17.492188 21.101562 17.125 C 22.503906 16.585938 22.066406 14.898438 21.132812 14.328125 C 20.203125 13.757812 18.984375 14.15625 18.984375 14.15625 C 18.984375 14.15625 18.984375 12.996094 17.664062 12.441406 C 16.347656 11.886719 15.238281 13.117188 15.238281 13.117188 C 15.238281 13.117188 14.5 11.011719 12.460938 11 Z M 12.460938 11 "/>
  </g>
</svg>

<svg xmlns="http://www.w3.org/2000/svg" width="32" height="32" viewBox="0 0 24 24">
 <g>
  <path d="m 7.102 6 c -0.156 0 -0.32 0.008 -0.492 0.031 c -2.691 0.344 -2.609 2.656 -2.609 2.656 c -1.102 0.188 -2 1.148 -2 2.156 c 0 1 1.148 1.895 2.113 2.156 c 0.574 0.152 1.328 0 1.328 0 c 0.34 0.602 1.465 1 2.246 1 c 1.281 0 2.594 -0.422 2.898 -1 c 0 0 5.289 0.422 6.391 0 c 1.602 -0.617 1.102 -2.547 0.035 -3.195 c -1.066 -0.652 -2.457 -0.195 -2.457 -0.195 c 0 0 -0.004 -1.328 -1.508 -1.961 c -1.508 -0.633 -2.773 0.77 -2.773 0.77 c 0 0 -0.844 -2.402 -3.172 -2.418 m 0 0" style="fill:#d7d7d7;fill-opacity:1;stroke:none;fill-rule:nonzero"/>
  <path d="m 12.461 11 c -0.133 0 -0.281 0.008 -0.426 0.023 c -2.355 0.305 -2.285 2.328 -2.285 2.328 c -0.965 0.164 -1.75 1 -1.75 1.883 c 0 0.883 1.01 1.664 1.852 1.891 c 0.5 0.133 1.156 0 1.156 0 c 0.301 0.523 1.285 0.875 1.969 0.875 c 1.121 0 2.27 -0.371 2.535 -0.875 c 0 0 4.629 0.367 5.59 0 c 1.402 -0.539 0.965 -2.227 0.031 -2.797 c -0.93 -0.57 -2.148 -0.172 -2.148 -0.172 c 0 0 0 -1.16 -1.32 -1.715 c -1.316 -0.555 -2.426 0.676 -2.426 0.676 c 0 0 -0.738 -2.105 -2.777 -2.117 m 0 0" style="fill:#ececec;fill-opacity:1;stroke:none;fill-rule:nonzero"/>
 </g>
</svg>
